svgs/light/hundred-points.svg

<svg xmlns="http://www.w3.org/2000/svg" viewBox="0 0 512 512"><!--! Font Awesome Pro 6.3.0 by @fontawesome - https://fontawesome.com License - https://fontawesome.com/license (Commercial License) Copyright 2023 Fonticons, Inc. --><path d="M177.4 93.33C182.4 58.14 212.5 32 248.1 32C291.6 32 324.1 70.5 318.8 113.5L302.6 226.7C297.6 261.9 267.5 288 231.9 288C188.4 288 155.1 249.5 161.2 206.5L177.4 93.33zM248.1 64C228.5 64 211.8 78.43 209 97.86L192.9 210.1C189.5 234.7 207.9 256 231.9 256C251.5 256 268.2 241.6 270.1 222.1L287.1 109C290.5 85.26 272.1 64 248.1 64H248.1zM129.8 35.21C134.4 38.7 136.7 44.45 135.8 50.21L95.81 306.2C94.44 314.1 86.26 321.1 77.53 319.8C68.79 318.6 62.82 310.5 64.19 301.8L99.72 74.41L54.3 94.6C46.17 98.21 36.77 94.6 33.29 86.54C29.81 78.47 33.58 69.01 41.7 65.4L113.7 33.4C119.1 31.02 125.2 31.71 129.8 35.21H129.8zM496.7 111.8L485.6 208.6C481.4 244.7 450.8 272 414.4 272C371.6 272 338.4 234.7 343.3 192.2L354.4 95.42C358.6 59.28 389.2 32 425.6 32C468.4 32 501.6 69.31 496.7 111.8zM375.1 195.8C372.3 219.4 390.7 240 414.4 240C434.6 240 451.5 224.9 453.8 204.9L464.1 108.2C467.7 84.64 449.3 64 425.6 64C405.5 64 388.5 79.09 386.2 99.09L375.1 195.8zM511.9 333.9C513 342.6 506.9 350.7 498.1 351.9L18.12 415.9C9.357 417 1.31 410.9 .1421 402.1C-1.026 393.4 5.128 385.3 13.89 384.1L493.9 320.1C502.6 318.1 510.7 325.1 511.9 333.9zM209.1 479.9C201.2 480.1 193.2 474.8 192.1 465.1C191 457.2 197.2 449.2 206 448.1L462 416.1C470.8 415 478.8 421.2 479.9 430C480.1 438.8 474.8 446.8 465.1 447.9L209.1 479.9z"/></svg>

<svg xmlns="http://www.w3.org/2000/svg" viewBox="0 0 512 512"><!--! Font Awesome Pro 6.4.0 by @fontawesome - https://fontawesome.com License - https://fontawesome.com/license (Commercial License) Copyright 2023 Fonticons, Inc. --><path d="M177.4 93.3c5-35.2 35.2-61.3 70.7-61.3c43.5 0 76.9 38.5 70.7 81.5L302.6 226.7c-5 35.2-35.2 61.3-70.7 61.3c-43.5 0-76.9-38.5-70.7-81.5L177.4 93.3zM248.1 64c-19.6 0-36.3 14.4-39 33.9L192.9 211c-3.4 23.8 15 45 39 45c19.6 0 36.3-14.4 39-33.9L287.1 109c3.4-23.8-15-45-39-45zM129.8 35.2c4.6 3.5 6.9 9.2 6 15l-40 256c-1.4 8.8-9.6 14.9-18.3 13.6s-14.7-9.3-13.3-18.1L99.7 74.4 54.3 94.6c-8.1 3.6-17.5 0-21-8.1s.3-17.5 8.4-21.1l72-32c5.4-2.4 11.5-1.7 16.1 1.8zM425.6 32c42.8 0 76.1 37.3 71.2 79.8l-11.2 96.7c-4.2 36.1-34.8 63.4-71.2 63.4c-42.8 0-76.1-37.3-71.2-79.8l11.2-96.7C358.6 59.3 389.2 32 425.6 32zM386.2 99.1L375 195.8c-2.7 23.5 15.7 44.2 39.4 44.2c20.1 0 37.1-15.1 39.4-35.1L465 108.2C467.7 84.6 449.3 64 425.6 64c-20.1 0-37.1 15.1-39.4 35.1zM511.9 333.9c1.2 8.8-5 16.8-13.7 18l-480 64c-8.8 1.2-16.8-5-18-13.7s5-16.8 13.7-18l480-64c8.8-1.2 16.8 5 18 13.7zM466 447.9l-256 32c-8.8 1.1-16.8-5.1-17.9-13.9s5.1-16.8 13.9-17.9l256-32c8.8-1.1 16.8 5.1 17.9 13.9s-5.1 16.8-13.9 17.9z"/></svg>
